src/assets/logo-tweaks/pansexual.svg

<svg width="26" height="26" viewBox="0 0 26 26" fill="none" xmlns="http://www.w3.org/2000/svg">
<g clip-path="url(#clip0)">
<mask id="mask0" mask-type="alpha" maskUnits="userSpaceOnUse" x="0" y="0" width="26" height="27">
<path fill-rule="evenodd" clip-rule="evenodd" d="M2.81103 0.18182C1.25842 0.18182 0 1.44018 0 2.99244V19.2393C0 20.7917 1.25854 22.0499 2.81103 22.0499H9.05065L13.028 26.0273L17.0053 22.0499H23.189C24.7416 22.0499 26 20.7916 26 19.2393V2.99244C26 1.44007 24.7415 0.18182 23.189 0.18182H2.81103Z" fill="#C4C4C4"/>
</mask>
<g mask="url(#mask0)">
<rect x="-1.25" y="20.625" width="31.3125" height="7.3125" fill="#2874F7"/>
<path fill-rule="evenodd" clip-rule="evenodd" d="M-3.5 10.1847H26.5V21.1875H-3.5V10.1847Z" fill="#2874F7"/>
<path fill-rule="evenodd" clip-rule="evenodd" d="M-3.5 -0.81818H26.5V10.1847H-3.5V-0.81818Z" fill="#FF0C9A"/>
<path fill-rule="evenodd" clip-rule="evenodd" d="M-4 7H31V13H-4V7Z" fill="#F2CB20"/>
</g>
</g>
<defs>
<clipPath id="clip0">
<rect width="26" height="26" fill="white"/>
</clipPath>
</defs>
</svg>

<svg fill="none" xmlns="http://www.w3.org/2000/svg" viewBox="0 0 26 26">
  <g clip-path="url(#pansexual__clip0)">
    <path fill="#2874F7" d="M-1.25 20.625h31.313v7.313H-1.25z"/>
    <path fill-rule="evenodd" clip-rule="evenodd" d="M-3.5 10.185h30v11.002h-30V10.185z" fill="#2874F7"/>
    <path fill-rule="evenodd" clip-rule="evenodd" d="M-3.5-.818h30v11.003h-30V-.818z" fill="#FF0C9A"/>
    <path fill-rule="evenodd" clip-rule="evenodd" d="M-4 7h35v6H-4V7z" fill="#F2CB20"/>
  </g>
  <defs>
    <clipPath id="pansexual__clip0">
      <path fill="#fff" d="M0 0h26v26H0z"/>
    </clipPath>
  </defs>
</svg>
